packages/icons/src/SVG/database-solid.svg

<svg width="12" height="12" viewBox="0 0 12 12" >
<path fill-rule="evenodd" clip-rule="evenodd" d="M0 5.5V0H12V5.5H0ZM2 2.25H3V3.25H2V2.25ZM4 2.25H5V3.25H4V2.25Z" />
<path fill-rule="evenodd" clip-rule="evenodd" d="M0 12V6.5H12V12H0ZM2 8.75H3V9.75H2V8.75ZM4 8.75H5V9.75H4V8.75Z" />
</svg>

<!-- Generated by IcoMoon.io -->
<svg version="1.1" xmlns="http://www.w3.org/2000/svg" width="12" height="12" viewBox="0 0 12 12">
<title>database-solid</title>
<path d="M0 5.5h12v-5.5h-12v5.5zM2 2.25h1v1h-1v-1zM4 2.25h1v1h-1v-1z"></path>
<path d="M0 12h12v-5.5h-12v5.5zM2 8.75h1v1h-1v-1zM4 8.75h1v1h-1v-1z"></path>
</svg>
